X:413
T: WACHET AUF WACHET AUF
N: E1603B
O: Europa, Mitteleuropa, Deutschland, Hessen, Wetterau
R: Staende -, Handwerker -, Gesellen - Lied, Wanderschaft
M: 4/4
L: 1/16
K: F
F2A2 | c4c2c2c2d2c2B2 | c4A3AA4
c4 | G4A4d2c2B2A2 | A4G4z4
c4 | d4e4f4e2d2 | c6B2A4
c4 | d6c2B4A4 | A4G4z4
c4 | d4e4f4e2d2 | c6B2A4
c4 | d6c2B4A4 | A4G4z4

